usr/share/icons/biglinux-icons-material/16/actions/draw-spiral.svg

<svg xmlns="http://www.w3.org/2000/svg" viewBox="0 0 16 16">
  <defs id="defs3051">
    <style type="text/css" id="current-color-scheme">
      .ColorScheme-Text {
        color:#363636;
      }
      </style>
  </defs>
 <path style="fill:currentColor;fill-opacity:1;stroke:none" 
     d="M 8.1308594 2.0039062 C 5.2311494 2.1223362 2.8303544 4.66121 2.9589844 7.65625 C 2.9831844 8.21886 3.1173938 8.7510325 3.3085938 9.2578125 L 4.7714844 8.7714844 C 4.6260844 8.4198044 4.5222606 8.04906 4.4941406 7.65625 C 4.3397206 5.49901 6.0545894 3.6528013 8.1308594 3.5195312 C 10.456709 3.3702513 12.438483 5.30969 12.564453 7.65625 C 12.703573 10.24776 10.634179 12.451212 8.1308594 12.576172 C 5.9526894 12.684912 4.0575238 11.242932 3.3085938 9.2578125 L 2 9.6914062 C 2.92184 12.239646 5.3516994 14.092144 8.1308594 13.996094 C 11.403899 13.882984 14.116914 11.03165 13.996094 7.65625 C 13.883034 4.49694 11.247609 1.8766063 8.1308594 2.0039062 z M 4.7714844 8.7714844 C 5.3255044 10.111504 6.6402094 11.069487 8.1308594 10.935547 C 9.7358694 10.791317 11.059146 9.33494 10.878906 7.65625 C 10.731236 6.28093 9.5139394 5.1424894 8.1308594 5.3496094 C 7.0721394 5.5081694 6.1844112 6.53225 6.4257812 7.65625 C 6.4631812 7.83039 6.5376656 7.9996369 6.6347656 8.1542969 L 8.1308594 7.65625 C 8.8588994 7.65625 8.5850994 8.530305 8.1308594 8.734375 C 7.5462494 8.997035 6.9530456 8.6611569 6.6347656 8.1542969 L 4.7714844 8.7714844 z "
     class="ColorScheme-Text"
     />
</svg>

<svg xmlns="http://www.w3.org/2000/svg" viewBox="0 0 16 16"><path d="M8.13 2.004c-2.899.118-5.3 2.657-5.171 5.652a5.15 5.15 0 0 0 .35 1.602L4.77 8.77a3.58 3.58 0 0 1-.277-1.115C4.34 5.5 6.054 3.653 8.131 3.52c2.326-.15 4.307 1.79 4.433 4.136.14 2.592-1.93 4.795-4.433 4.92-2.178.109-4.073-1.333-4.822-3.318L2 9.69c.922 2.549 3.352 4.401 6.13 4.305 3.274-.113 5.987-2.964 5.866-6.34-.113-3.16-2.748-5.78-5.865-5.652zM4.772 8.77c.555 1.34 1.87 2.298 3.36 2.165 1.605-.145 2.928-1.601 2.748-3.28C10.73 6.281 9.514 5.142 8.13 5.35c-1.059.158-1.947 1.182-1.705 2.306.037.174.112.344.209.498l1.496-.498c.728 0 .454.874 0 1.078-.585.263-1.178-.073-1.496-.58l-1.864.617z" style="fill:currentColor;fill-opacity:1;stroke:none;color:#dedede"/></svg>
